packages/core/src/svgs/ooki.svg

<svg width="24" height="24" viewBox="0 0 24 24" fill="none" xmlns="http://www.w3.org/2000/svg">
<g clip-path="url(#clip0_31_15457)">
<path d="M0 0H24V24H0V0Z" fill="#F0F3FA"/>
<path d="M12.0002 18.8355C12.9137 18.8584 13.8225 18.6982 14.6732 18.3644C15.5238 18.0306 16.2991 17.53 16.9532 16.892C17.6074 16.2539 18.1273 15.4915 18.4823 14.6494C18.8372 13.8074 19.0201 12.9029 19.0201 11.9891C19.0201 11.0753 18.8372 10.1708 18.4823 9.32873C18.1273 8.48671 17.6074 7.72424 16.9532 7.08622C16.2991 6.44821 15.5238 5.94757 14.6732 5.61378C13.8225 5.27999 12.9137 5.1198 12.0002 5.14266C11.0762 5.10261 10.1536 5.25002 9.28801 5.57603C8.42245 5.90203 7.63185 6.39988 6.96382 7.03958C6.2958 7.67927 5.76418 8.44758 5.401 9.2982C5.03782 10.1488 4.85059 11.0642 4.85059 11.9891C4.85059 12.914 5.03782 13.8293 5.401 14.68C5.76418 15.5306 6.2958 16.2989 6.96382 16.9386C7.63185 17.5783 8.42245 18.0761 9.28801 18.4021C10.1536 18.7282 11.0762 18.8756 12.0002 18.8355Z" fill="#F6BE4E"/>
<mask id="mask0_31_15457" style="mask-type:luminance" maskUnits="userSpaceOnUse" x="4" y="5" width="16" height="14">
<path d="M12.0002 18.857C12.9137 18.8799 13.8225 18.7197 14.6732 18.3859C15.5238 18.0521 16.2991 17.5514 16.9532 16.9134C17.6074 16.2754 18.1273 15.513 18.4823 14.6709C18.8372 13.8289 19.0201 12.9244 19.0201 12.0106C19.0201 11.0968 18.8372 10.1922 18.4823 9.35022C18.1273 8.50819 17.6074 7.74572 16.9532 7.10771C16.2991 6.4697 15.5238 5.96905 14.6732 5.63526C13.8225 5.30147 12.9137 5.14129 12.0002 5.16414C11.0762 5.12409 10.1536 5.27151 9.28801 5.59751C8.42245 5.92352 7.63185 6.42137 6.96382 7.06106C6.2958 7.70076 5.76418 8.46906 5.401 9.31969C5.03782 10.1703 4.85059 11.0857 4.85059 12.0106C4.85059 12.9355 5.03782 13.8508 5.401 14.7015C5.76418 15.5521 6.2958 16.3204 6.96382 16.9601C7.63185 17.5998 8.42245 18.0976 9.28801 18.4236C10.1536 18.7496 11.0762 18.8971 12.0002 18.857Z" fill="white"/>
</mask>
<g mask="url(#mask0_31_15457)">
<path opacity="0.69" d="M18.7801 10.9458C19.6458 14.1687 17.3744 17.6187 13.7529 18.5872C10.1358 19.5558 6.44151 17.7001 5.58008 14.4729C7.27722 16.5301 10.2086 17.4215 13.0286 16.7487C16.0029 16.0415 18.3086 13.7187 18.7801 10.9458Z" fill="#E38329"/>
</g>
<path d="M9.42857 12.0002C9.54224 12.0002 9.65124 11.9551 9.73162 11.8747C9.81199 11.7943 9.85714 11.6853 9.85714 11.5716C9.85714 11.458 9.81199 11.349 9.73162 11.2686C9.65124 11.1882 9.54224 11.1431 9.42857 11.1431C9.31491 11.1431 9.2059 11.1882 9.12553 11.2686C9.04515 11.349 9 11.458 9 11.5716C9 11.6853 9.04515 11.7943 9.12553 11.8747C9.2059 11.9551 9.31491 12.0002 9.42857 12.0002ZM14.5714 12.0002C14.6851 12.0002 14.7941 11.9551 14.8745 11.8747C14.9548 11.7943 15 11.6853 15 11.5716C15 11.458 14.9548 11.349 14.8745 11.2686C14.7941 11.1882 14.6851 11.1431 14.5714 11.1431C14.4578 11.1431 14.3488 11.1882 14.2684 11.2686C14.188 11.349 14.1429 11.458 14.1429 11.5716C14.1429 11.6853 14.188 11.7943 14.2684 11.8747C14.3488 11.9551 14.4578 12.0002 14.5714 12.0002ZM11.5714 12.0002C11.4429 12.0088 11.3571 12.1031 11.3486 12.2359C11.34 12.4074 11.4129 12.5874 11.5371 12.6945C11.6657 12.8059 11.8414 12.8531 12.0086 12.8574C12.1757 12.8574 12.33 12.8145 12.4543 12.6988C12.5271 12.6345 12.5743 12.5531 12.6086 12.4631C12.6429 12.3688 12.6643 12.2874 12.6471 12.1845C12.63 12.0859 12.5229 12.0002 12.4329 12.0002H11.5714Z" fill="#313076"/>
</g>
<defs>
<clipPath id="clip0_31_15457">
<rect width="24" height="24" fill="white"/>
</clipPath>
</defs>
</svg>

<svg xmlns="http://www.w3.org/2000/svg" width="24" height="24" fill="none" viewBox="0 0 24 24"><g clip-path="url(#a)"><path fill="#F0F3FA" d="M0 0h24v24H0z"/><path fill="#F6BE4E" d="M12 18.836a6.848 6.848 0 1 0 0-13.693 6.853 6.853 0 1 0 0 13.693"/><mask id="b" width="16" height="14" x="4" y="5" maskUnits="userSpaceOnUse" style="mask-type:luminance"><path fill="#fff" d="M12 18.857a6.848 6.848 0 1 0 0-13.693 6.853 6.853 0 1 0 0 13.693"/></mask><g mask="url(#b)"><path fill="#E38329" d="M18.78 10.946c.866 3.223-1.406 6.673-5.027 7.641-3.617.969-7.311-.887-8.173-4.114 1.697 2.057 4.629 2.949 7.449 2.276 2.974-.707 5.28-3.03 5.751-5.803" opacity=".69"/></g><path fill="#313076" d="M9.429 12a.428.428 0 1 0 0-.857.428.428 0 0 0 0 .857m5.142 0a.429.429 0 1 0 0-.857.429.429 0 0 0 0 .857m-3 0c-.128.009-.214.103-.222.236a.58.58 0 0 0 .188.458.75.75 0 0 0 .472.163.63.63 0 0 0 .445-.158.6.6 0 0 0 .155-.236.5.5 0 0 0 .038-.278.24.24 0 0 0-.214-.185z"/></g><defs><clipPath id="a"><path fill="#fff" d="M0 0h24v24H0z"/></clipPath></defs></svg>
